X:1
T:When I pour out my soul in prayer
T:Ozias Thurston Linley
T:p36, A Collection of Sacred Music, ed. J. M. Coombs (jr.), London, (1830)
T:This edition by Edmund Gooch released into the public domain, August 2014.
T:When I pour out my soul in prayer
T:Psalm 102
C:Ozias Thurston Linley
Z:p36, A Collection of Sacred
Z:Music, ed. J. M. Coombs (jr.),
Z:London, (1830)
%%score [ 1 2 3 4 ]
L:1/8
M:4/4
K:Eb
V:1 treble nm="Soprano" snm="S."
V:2 treble nm="Alto" snm="A."
V:3 treble-8 transpose=-12 nm="Tenor" snm="T."
V:4 bass nm="Bass" snm="B."
V:1
"^Moderately Slow" E4 | E4 (F3 E) | D4 E4 | A4 A4 | G4 (F3 G) | A4 G4 | F4 =A4 | B4 d4 | c4 B4 | %9
w: My|days, just _|hast- ’ning|to their|end, Are _|like an|eve- ning|shade; My|beau- ty|
w: When|I pour _|out my|soul in|pray’r, Do _|thou, O|Lord, at-|tend; To|thy e-|
w: O|hide not _|thou thy|glo- rious|face In _|times of|deep dis-|tress; In-|cline thine|
 =A4 c4 | B4 _A4 | G4 (F2 G2) | A4 G4 | F4 (B3 A) | G4 |] %15
w: does, like|wi- ther’d|grass, With _|wa- ning|lus- tre _|fade.|
w: ter- nal|throne of|grace Let _|my sad|cry as- *|cend.|
w: ear, and,|when I|call, My _|sor- rows|soon re- *|dress.|
V:2
 B,4 | C4 C4 | B,4 B,4 | (A,2 E2) D4 | E4 F4 | E4 E4 | D4 (F2 E2) | D4 F4 | F4 =E4 | F4 E4 | %10
w: My|days, just|hast- ’ning|to _ their|end, Are|like an|eve- ning _|shade; My|beau- ty|does, like|
w: When|I pour|out my|soul _ in|pray’r, Do|thou, O|Lord, at- *|tend; To|thy e-|ter- nal|
w: O|hide not|thou thy|glo- * rious|face In|times of|deep dis- *|tress; In-|cline thine|ear, and,|
 E4 (E2 D2) | E4 E4 | (E2 F2) E4 | E4 D4 | E4 |] %15
w: wi- ther’d _|grass, With|wa- * ning|lus- tre|fade.|
w: throne of _|grace Let|my _ sad|cry as-|cend.|
w: when I _|call, My|sor- * rows|soon re-|dress.|
V:3
 G4 | G4 (A3 G) | F4 (E2 c2) | c4 B4 | B4 B4 | c4 B4 | B4 c4 | B4 B4 | c4 c4 | c4 c4 | (e2 B2) B4 | %11
w: My|days, just _|hast- ’ning _|to their|end, Are|like an|eve- ning|shade; My|beau- ty|does, like|wi- * ther’d|
w: When|I pour _|out my _|soul in|pray’r, Do|thou, O|Lord, at-|tend; To|thy e-|ter- nal|throne _ of|
w: O|hide not _|thou thy _|glo- rious|face In|times of|deep dis-|tress; In-|cline thine|ear, and,|when _ I|
 B4 B4 | (c2 B2) B4 | c4 (F2 B2) | B4 |] %15
w: grass, With|wa- * ning|lus- tre _|fade.|
w: grace Let|my _ sad|cry as- *|cend.|
w: call, My|sor- * rows|soon re- *|dress.|
V:4
 E,4 | C,4 F,,4 | B,,4 C,4 | F,4 B,,4 | E,4 D,4 | C,4 E,4 | F,4 F,4 | %7
w: My|days, just|hast- ’ning|to their|end, Are|like an|eve- ning|
w: When|I pour|out my|soul in|pray’r, Do|thou, O|Lord, at-|
w: O|hide not|thou thy|glo- rious|face In|times of|deep dis-|
"^Notes:The alto and tenor parts are printed in the alto and tenor clefs respectively in the source. Only the first verse of the text isgiven in the source: the other verses given here have been added editorially. The source contains a fully written-outkeyboard accompaniment, doubling the vocal parts, which has been omitted from the present edition.This setting is attributed to ‘Revd. O. T. Linley’ in the source." B,,4 B,4 | %8
w: shade; My|
w: tend; To|
w: tress; In-|
 =A,4 G,4 | F,4 A,4 | G,4 F,4 | E,4 _D,4 | (C,2 D,2) E,4 | A,,4 B,,4 | E,4 |] %15
w: beau- ty|does, like|wi- ther’d|grass, With|wa- * ning|lus- tre|fade.|
w: thy e-|ter- nal|throne of|grace Let|my _ sad|cry as-|cend.|
w: cline thine|ear, and,|when I|call, My|sor- * rows|soon re-|dress.|

